X:0760
T:"Out With The Boys" (1st Setting) (jig) 0760
C:after Sgt. J. ONeill
B:O'Neill's Music Of Ireland (The 1850) Lyon & Healy, Chicago, 1903 edition
Z:FROM O'NEILL'S TO NOTEWORTHY, FROM NOTEWORTHY TO ABC, MIDI AND .TXT BY VINCE
BRENNAN June 2003 (HTTP://WWW.SOSYOURMOM.COM)
I:abc2nwc
M:6/8
L:1/8
K:G
B|B3g2e|dBG AFD|G3g2e|dBG A2B|
G3g2e|dBG GAB|cde dcB|cAF G2"Fine"||
B|eBe gbg|eBe gbg|eBe g2a|bag agf|
eBe gbg|eBe g2a|bag agf|e3"Da Capo al Fine"d2|]
